X: 93
T: the Rushy Mountain   #2
R: jig
%S: s:2 b:14(7+7)
B: O'Neill's 1850 #93
Z: 1999 John Chambers <jc@trillian.mit.edu>
Q: "Moderate"
O: F.O'Neill
M: 2/4
L: 1/8
K: D
A | Ad df | (e/d/c/d/) [1 ea | fd Be | (d2 c) :|2 ed | cA B^G | A2 z |]| d | .c.A .A.d |
| .c.A .A.d | (c/d/e/f/) gf | (f2 e)d || .c.A .A.d | cA Hfd | (c/d/e/f/) gc | d2 z |]
